X: 5
T: Chelmsford Races
R: jig
M: 6/8
L: 1/8
Z: 2010 John Chambers <jc:trillian.mit.edu>
B: 19th century tune book collected by W.A. Cocks.
F: http://www.asaplive.com/archive/browse_by_collection.asp
N: The asaplive.com web site is complex, and links to its files don't usually work.
K: A
[EA,] |\
A2A AGA | B2B e2e | cec A2A | GAB EFG |\
A2A AGA | B2B e2c | dfe dcB | A2A A2 :|
|: c |\
efe cde | f2f f3  | gfg efg | a2a a3 |\
efe cde | f2g agf | efe dcB | A2A A2 :|


%%sep 5 1 500

